images/icons/v2/timer-40-12.svg

<svg height="12" viewBox="0 0 12 12" width="12" xmlns="http://www.w3.org/2000/svg"><path d="m1.074 2.579.889.513a5.035 5.035 0 0 0 -.5.866l-.888-.513a6 6 0 0 1 .499-.866zm-1.048 2.921a6.07 6.07 0 0 0 0 1h1.015a4.915 4.915 0 0 1 0-1zm11.774-1.053a6 6 0 0 0 -6.3-4.422v1.016a4.991 4.991 0 1 1 -4.044 7.006l-.88.508a6 6 0 0 0 11.224-4.108zm-9.219-3.371.506.878a4.959 4.959 0 0 1 .866-.5l-.507-.878a5.994 5.994 0 0 0 -.865.5zm4.069 4.549a.751.751 0 0 0 -1.025-.275l-3.214 2.434.25.432 3.714-1.567a.749.749 0 0 0 .275-1.024z"/></svg>

<svg xmlns="http://www.w3.org/2000/svg" width="12" height="12" viewBox="0 0 12 12"><title>timer-40-12</title><path d="M1.074,2.579l.889.513a5.035,5.035,0,0,0-.5.866L.575,3.445A6,6,0,0,1,1.074,2.579ZM.026,5.5a6.07,6.07,0,0,0,0,1H1.041a4.915,4.915,0,0,1,0-1ZM11.8,4.447A6,6,0,0,0,5.5.025V1.041A4.991,4.991,0,1,1,1.456,8.047l-.88.508A6,6,0,0,0,11.8,4.447ZM2.581,1.076l.506.878a4.959,4.959,0,0,1,.866-.5L3.446.576A5.994,5.994,0,0,0,2.581,1.076ZM6.65,5.625A.751.751,0,0,0,5.625,5.35L2.411,7.784l.25.432L6.375,6.649A.749.749,0,0,0,6.65,5.625Z"/></svg>
